static/images/social/twitter.svg

<?xml version="1.0" encoding="UTF-8"?>
<svg width="24px" height="24px" viewBox="0 0 24 24" version="1.1" xmlns="http://www.w3.org/2000/svg" xmlns:xlink="http://www.w3.org/1999/xlink">
    <title>编组 10</title>
    <g id="页面-1" stroke="none" stroke-width="1" fill="none" fill-rule="evenodd">
        <g id="编组-10" fill-rule="nonzero">
            <g id="编组-3">
                <circle id="椭圆形" fill="#010201" cx="12" cy="12" r="12"></circle>
                <path d="M9.57511111,18.9120039 C15.4417778,18.9120039 18.6417778,14.0551111 18.6417778,9.84533333 C18.6417778,9.70666667 18.6417778,9.56977778 18.6417778,9.43288889 C19.2651528,8.98151212 19.8033059,8.4228924 20.2311111,7.78311111 C19.6500069,8.04124503 19.033293,8.21025703 18.4017778,8.28444444 C19.0666843,7.88621107 19.564464,7.26019632 19.8026667,6.52266667 C19.1736133,6.89130619 18.4865046,7.15039965 17.7706667,7.28888889 C16.8759264,6.33614975 15.4902415,6.02615694 14.2748308,6.50683229 C13.0594201,6.98750763 12.2606021,8.16143604 12.2595556,9.46844444 C12.2586173,9.71257419 12.2860607,9.95598553 12.3413333,10.1937778 C9.77937958,10.0660036 7.39221324,8.85626474 5.77422222,6.86577778 C4.92745798,8.32181024 5.35965909,10.1853368 6.76088889,11.12 C6.25453083,11.1047431 5.75933099,10.9675264 5.31733333,10.72 C5.31644686,10.7336152 5.31644686,10.7472737 5.31733333,10.7608889 C5.3177606,12.277706 6.38698813,13.5841266 7.87377778,13.8844444 C7.40477494,14.0117878 6.91292811,14.0306348 6.43555556,13.9395556 C6.85240071,15.2371887 8.04542431,16.1283888 9.408,16.16 C8.27947438,17.0460811 6.88548433,17.5264002 5.45066667,17.5235556 C5.19696608,17.5240206 4.94346851,17.5091788 4.69155556,17.4791111 C6.1478753,18.4161388 7.84338209,18.9136191 9.57511111,18.9120039" id="路径" fill="#FFFFFF"></path>
            </g>
        </g>
    </g>
</svg>

<svg xmlns="http://www.w3.org/2000/svg" width="24" height="24" viewBox="0 0 24 24"><title>twitter</title><g fill="none" fill-rule="nonzero"><circle cx="12" cy="12" r="12" fill="#444"/><path fill="#DEDEDE" d="M9.575 18.912c5.867 0 9.067-4.857 9.067-9.067v-.412a6.492 6.492 0 0 0 1.59-1.65 6.324 6.324 0 0 1-1.83.501 3.2 3.2 0 0 0 1.4-1.761 6.437 6.437 0 0 1-2.031.766 3.188 3.188 0 0 0-5.43 2.905 9.044 9.044 0 0 1-6.567-3.328 3.188 3.188 0 0 0 .987 4.254 3.148 3.148 0 0 1-1.444-.4v.04a3.188 3.188 0 0 0 2.557 3.124 3.2 3.2 0 0 1-1.438.056 3.2 3.2 0 0 0 2.972 2.22 6.388 6.388 0 0 1-4.716 1.32 9.01 9.01 0 0 0 4.883 1.432"/></g></svg>
